X: 4
T: Den lange bane
B:[[Notböcker/Melodier til gamle danske Almuedanse for Violin solo]]
O:Danmark
Z:Søren Bak Vestergaard
M: 2/4
L: 1/8
K: D
A|dd cc|BB A2|BB cc|(dA) FD|dd cc|BB A2|BB cc|d2 z:|\
|:d|f2 f2|(ed) .e.g|fefg|a4|f2 f2|(ed) eg|(fg) ec|d2 z:|

